ic16/ic16__package-dependencies.svg

<svg fill="none" height="16" width="16" xmlns="http://www.w3.org/2000/svg" xmlns:xlink="http://www.w3.org/1999/xlink"><clipPath id="a"><path d="m0 0h16v16h-16z"/></clipPath><g clip-path="url(#a)"><path clip-rule="evenodd" d="m6.122.392a1.75 1.75 0 0 1 1.756 0l5.25 3.045c.54.313.872.89.872 1.514v2.299a.75.75 0 0 1 -1.5 0v-1.573l-4.75 2.755v6.384a1 1 0 0 1 -1.502.865l-5.376-3.118a1.75 1.75 0 0 1 -.872-1.514v-6.098c0-.624.332-1.2.872-1.514zm1.003 1.298 4.63 2.685-4.755 2.758-4.755-2.758 4.63-2.685a.25.25 0 0 1 .25 0zm-5.625 9.359v-5.372l4.75 2.755v5.516l-4.625-2.683a.25.25 0 0 1 -.125-.216zm11.672-.282a.75.75 0 1 0 -1.087-1.034l-2.378 2.5a.75.75 0 0 0 0 1.034l2.378 2.5a.75.75 0 1 0 1.087-1.034l-1.173-1.233h3.251a.75.75 0 0 0 0-1.5h-3.251z" fill-rule="evenodd"/></g></svg>

<svg width="16" height="16" fill="none" xmlns="http://www.w3.org/2000/svg">
  <g clip-path="url(#ic16__package-dependencies__clip0)">
    <path fill-rule="evenodd" clip-rule="evenodd" d="M6.122.392a1.75 1.75 0 011.756 0l5.25 3.045c.54.313.872.89.872 1.514V7.25a.75.75 0 01-1.5 0V5.677L7.75 8.432v6.384a1 1 0 01-1.502.865L.872 12.563A1.75 1.75 0 010 11.049V4.951c0-.624.332-1.2.872-1.514L6.122.392zM7.125 1.69l4.63 2.685L7 7.133 2.245 4.375l4.63-2.685a.25.25 0 01.25 0zM1.5 11.049V5.677l4.75 2.755v5.516l-4.625-2.683a.25.25 0 01-.125-.216zm11.672-.282a.75.75 0 10-1.087-1.034l-2.378 2.5a.75.75 0 000 1.034l2.378 2.5a.75.75 0 101.087-1.034L11.999 13.5h3.251a.75.75 0 000-1.5h-3.251l1.173-1.233z" />
  </g>
  <defs>
    <clipPath id="ic16__package-dependencies__clip0">
      <path  d="M0 0h16v16H0z"/>
    </clipPath>
  </defs>
</svg>
